packages/icons/src/sun-fill.svg

<svg width="24" height="24" viewBox="0 0 24 24" fill="none" xmlns="http://www.w3.org/2000/svg">
<path d="M12 17C10.6167 17 9.4375 16.5125 8.4625 15.5375C7.4875 14.5625 7 13.3833 7 12C7 10.6167 7.4875 9.4375 8.4625 8.4625C9.4375 7.4875 10.6167 7 12 7C13.3833 7 14.5625 7.4875 15.5375 8.4625C16.5125 9.4375 17 10.6167 17 12C17 13.3833 16.5125 14.5625 15.5375 15.5375C14.5625 16.5125 13.3833 17 12 17ZM2 13C1.71667 13 1.47917 12.9042 1.2875 12.7125C1.09583 12.5208 1 12.2833 1 12C1 11.7167 1.09583 11.4792 1.2875 11.2875C1.47917 11.0958 1.71667 11 2 11H4C4.28333 11 4.52083 11.0958 4.7125 11.2875C4.90417 11.4792 5 11.7167 5 12C5 12.2833 4.90417 12.5208 4.7125 12.7125C4.52083 12.9042 4.28333 13 4 13H2ZM20 13C19.7167 13 19.4792 12.9042 19.2875 12.7125C19.0958 12.5208 19 12.2833 19 12C19 11.7167 19.0958 11.4792 19.2875 11.2875C19.4792 11.0958 19.7167 11 20 11H22C22.2833 11 22.5208 11.0958 22.7125 11.2875C22.9042 11.4792 23 11.7167 23 12C23 12.2833 22.9042 12.5208 22.7125 12.7125C22.5208 12.9042 22.2833 13 22 13H20ZM12 5C11.7167 5 11.4792 4.90417 11.2875 4.7125C11.0958 4.52083 11 4.28333 11 4V2C11 1.71667 11.0958 1.47917 11.2875 1.2875C11.4792 1.09583 11.7167 1 12 1C12.2833 1 12.5208 1.09583 12.7125 1.2875C12.9042 1.47917 13 1.71667 13 2V4C13 4.28333 12.9042 4.52083 12.7125 4.7125C12.5208 4.90417 12.2833 5 12 5ZM12 23C11.7167 23 11.4792 22.9042 11.2875 22.7125C11.0958 22.5208 11 22.2833 11 22V20C11 19.7167 11.0958 19.4792 11.2875 19.2875C11.4792 19.0958 11.7167 19 12 19C12.2833 19 12.5208 19.0958 12.7125 19.2875C12.9042 19.4792 13 19.7167 13 20V22C13 22.2833 12.9042 22.5208 12.7125 22.7125C12.5208 22.9042 12.2833 23 12 23ZM5.65 7.05L4.575 6C4.375 5.81667 4.27917 5.58333 4.2875 5.3C4.29583 5.01667 4.39167 4.775 4.575 4.575C4.775 4.375 5.01667 4.275 5.3 4.275C5.58333 4.275 5.81667 4.375 6 4.575L7.05 5.65C7.23333 5.85 7.325 6.08333 7.325 6.35C7.325 6.61667 7.23333 6.85 7.05 7.05C6.86667 7.25 6.6375 7.34583 6.3625 7.3375C6.0875 7.32917 5.85 7.23333 5.65 7.05ZM18 19.425L16.95 18.35C16.7667 18.15 16.675 17.9125 16.675 17.6375C16.675 17.3625 16.7667 17.1333 16.95 16.95C17.1333 16.75 17.3625 16.6542 17.6375 16.6625C17.9125 16.6708 18.15 16.7667 18.35 16.95L19.425 18C19.625 18.1833 19.7208 18.4167 19.7125 18.7C19.7042 18.9833 19.6083 19.225 19.425 19.425C19.225 19.625 18.9833 19.725 18.7 19.725C18.4167 19.725 18.1833 19.625 18 19.425ZM16.95 7.05C16.75 6.86667 16.6542 6.6375 16.6625 6.3625C16.6708 6.0875 16.7667 5.85 16.95 5.65L18 4.575C18.1833 4.375 18.4167 4.27917 18.7 4.2875C18.9833 4.29583 19.225 4.39167 19.425 4.575C19.625 4.775 19.725 5.01667 19.725 5.3C19.725 5.58333 19.625 5.81667 19.425 6L18.35 7.05C18.15 7.23333 17.9167 7.325 17.65 7.325C17.3833 7.325 17.15 7.23333 16.95 7.05ZM4.575 19.425C4.375 19.225 4.275 18.9833 4.275 18.7C4.275 18.4167 4.375 18.1833 4.575 18L5.65 16.95C5.85 16.7667 6.0875 16.675 6.3625 16.675C6.6375 16.675 6.86667 16.7667 7.05 16.95C7.25 17.1333 7.34583 17.3625 7.3375 17.6375C7.32917 17.9125 7.23333 18.15 7.05 18.35L6 19.425C5.81667 19.625 5.58333 19.7208 5.3 19.7125C5.01667 19.7042 4.775 19.6083 4.575 19.425Z" fill="black"/>
</svg>

<svg xmlns="http://www.w3.org/2000/svg" width="24" height="24" fill="none" viewBox="0 0 24 24">
  <path fill="#000" d="M12 17c-1.383 0-2.563-.488-3.537-1.463C7.488 14.563 7 13.383 7 12s.487-2.563 1.463-3.537C9.438 7.488 10.617 7 12 7s2.563.487 3.537 1.463C16.512 9.438 17 10.617 17 12s-.488 2.563-1.463 3.537C14.563 16.512 13.383 17 12 17ZM2 13a.967.967 0 0 1-.712-.287A.968.968 0 0 1 1 12a.97.97 0 0 1 .288-.713A.967.967 0 0 1 2 11h2c.283 0 .52.096.713.287.191.192.287.43.287.713s-.096.52-.287.713A.967.967 0 0 1 4 13H2Zm18 0a.968.968 0 0 1-.712-.287A.968.968 0 0 1 19 12a.97.97 0 0 1 .288-.713A.968.968 0 0 1 20 11h2a.97.97 0 0 1 .712.287c.192.192.288.43.288.713s-.096.52-.288.713A.968.968 0 0 1 22 13h-2Zm-8-8a.968.968 0 0 1-.713-.287A.967.967 0 0 1 11 4V2a.97.97 0 0 1 .287-.712A.968.968 0 0 1 12 1a.97.97 0 0 1 .713.288A.968.968 0 0 1 13 2v2c0 .283-.096.52-.287.713A.968.968 0 0 1 12 5Zm0 18a.968.968 0 0 1-.713-.288A.968.968 0 0 1 11 22v-2a.97.97 0 0 1 .287-.712A.968.968 0 0 1 12 19a.97.97 0 0 1 .713.288A.968.968 0 0 1 13 20v2a.97.97 0 0 1-.287.712A.968.968 0 0 1 12 23ZM5.65 7.05 4.575 6a.87.87 0 0 1-.288-.7 1.09 1.09 0 0 1 .288-.725c.2-.2.442-.3.725-.3s.517.1.7.3L7.05 5.65c.183.2.275.433.275.7 0 .267-.092.5-.275.7a.856.856 0 0 1-.688.288 1.07 1.07 0 0 1-.712-.288ZM18 19.425l-1.05-1.075a1.019 1.019 0 0 1-.275-.713c0-.274.092-.504.275-.687a.856.856 0 0 1 .688-.287c.274.008.512.104.712.287L19.425 18a.87.87 0 0 1 .287.7 1.085 1.085 0 0 1-.287.725c-.2.2-.442.3-.725.3a.908.908 0 0 1-.7-.3ZM16.95 7.05a.856.856 0 0 1-.287-.688 1.07 1.07 0 0 1 .287-.712L18 4.575a.87.87 0 0 1 .7-.288c.283.009.525.105.725.288.2.2.3.442.3.725s-.1.517-.3.7L18.35 7.05c-.2.183-.433.275-.7.275-.267 0-.5-.092-.7-.275ZM4.575 19.425c-.2-.2-.3-.442-.3-.725s.1-.517.3-.7l1.075-1.05c.2-.183.438-.275.712-.275.276 0 .505.092.688.275.2.183.296.413.288.688a1.07 1.07 0 0 1-.288.712L6 19.425a.87.87 0 0 1-.7.287 1.085 1.085 0 0 1-.725-.287Z"/>
</svg>
